actions/22x22-light/standard-connector.svg

<svg viewBox="0 0 22 22" xmlns="http://www.w3.org/2000/svg"><path d="m5 4v1h6v12 1h6v-1h-5v-13h-1z" fill="#4d4d4d"/><path d="m4.5 3c-.82843 0-1.5.67157-1.5 1.5s.67157 1.5 1.5 1.5 1.5-.67157 1.5-1.5-.67157-1.5-1.5-1.5zm13 13c-.82843 0-1.5.67157-1.5 1.5s.67157 1.5 1.5 1.5 1.5-.67157 1.5-1.5-.67157-1.5-1.5-1.5z" fill="#3daee9"/></svg>

<svg xmlns="http://www.w3.org/2000/svg" viewBox="0 0 22 22">
  <defs id="defs3051">
    <style type="text/css" id="current-color-scheme">
      .ColorScheme-Text {
        color:#4d4d4d;
      }
      .ColorScheme-Highlight {
        color:#3daee9;
      }
      </style>
  </defs>
 <path 
     style="fill:currentColor;fill-opacity:1;stroke:none" 
     d="M 5 4 L 5 5 L 11 5 L 11 17 L 11 18 L 17 18 L 17 17 L 12 17 L 12 4 L 11 4 L 5 4 z "
     class="ColorScheme-Text"
     />
 <path 
     style="fill:currentColor;fill-opacity:1;stroke:none" 
     d="M 4.5 3 C 3.67157 3 3 3.67157 3 4.5 C 3 5.32843 3.67157 6 4.5 6 C 5.32843 6 6 5.32843 6 4.5 C 6 3.67157 5.32843 3 4.5 3 z M 17.5 16 C 16.67157 16 16 16.67157 16 17.5 C 16 18.32843 16.67157 19 17.5 19 C 18.32843 19 19 18.32843 19 17.5 C 19 16.67157 18.32843 16 17.5 16 z "
     class="ColorScheme-Highlight"
     />
</svg>
